X:1
T:Title
%%score { ( 1 3 ) | ( 2 4 ) }
L:1/8
M:6/8
K:F
V:1 treble nm="Grand Piano"
V:3 treble 
V:2 treble 
V:4 treble 
V:1
 z6[Q:1/4=84] | [B,B]-[B,FB]B [DFA] .[FA]2 | [B,A]-[B,FA-][FA] [F,G]-[F,FG]F/F/ | BBB ABc | [DB]6 | %5
 [B,B]-[B,FB]B [DFA] .[FA]2 | .[DF]3 .[DF]3 | [Cc]-[CFc]A [B,EG][CFA][B,EG] | F6 | d3 cdc | %10
 [DB]3 [DF]3 | G3 BAG | [DF]6 | [Ff]3 [Fd][Fc][FB] | c2 d [G_e]2 [Gc] | z3 .B3 | %16
[M:7/8] d3 c [DB]3 |] %17
V:2
 z3 z2 F/F/ | z D[DF] z DD | z DD z DD | DD[^F,B,^CE] [=F,=C_E][F,B,^C][F,A,E] | %4
 z F,G, F,2[K:treble] F/F/ | z D[DF] z DD | z DD z[K:treble] DA/B/ | z DF C,C,C, | %8
 F,A,[_A,=B,][K:treble] .[=A,C]3 | [B,F]3[K:bass] [F,A,_E][F,B,F][F,A,E] | [B,,B,]3 [B,,B,]3 | %11
 [_E,B,_E]3 [E,G,E][E,A,E][E,B,E] | [B,,B,]6 | [D,B,]3 [B,,B,][C,A,][D,B,] | %14
 [_E,B,]2 [D,=B,] [C,C]2 [E,C] | .[F,DF]2 [F,DF] .[G,^CE]2 [F,=CF]/[F,DF]/ | %16
[M:7/8] [F,B,F]3 [F,A,_E] [B,,B,]3 |] %17
V:3
 x6 | .[DF]3 z3 | .[DF]3 .[DF]3 | x6 | .B,3 z3 | .[DF]3 z3 | [B,A]-[B,FA-][FA] .[F,G]- .[F,FG]2 | %7
 .[DF]3 z3 | A,CD ._E3 | x6 | x6 | x6 | x6 | x6 | G3 z3 | .B2 B z G,A/B/ |[M:7/8] x7 |] %17
V:4
 x6 | .B,,3 .[B,,F,]3 | .B,,3 .B,,3 | .[G,B,]3 z3 | B,,6[K:treble] | .B,,3 .[B,,F,]3 | %6
 .B,,3 .B,,3[K:treble] | .C,3 z3 | x3[K:treble] x3 | x3[K:bass] x3 | x6 | x6 | x6 | x6 | x6 | x6 | %16
[M:7/8] x7 |] %17

